X:2683
T:Humors of Castelcomer
O:england
R:jig
H:This tune came from Maureen Glynn.  She got it as sheet music from the
H:kitchen table of Paddy O'brien while she (and others) were paying their
H:last respects.  He died shortly in the next room.  According to
H:Maureen, the handwriten music was in a stack of music about a foot
H:high.
M:6/8
L:1/8
K:D
|:~E3 EFA | BcA B2 (c|d)ed d(cB) | A2 {cB}A FAD | ~E3 EFA | BcA B2 (c|d)
cB AFD | E3  E3 :|:   (efe) edB | efg {g}(f2 e) | ded d(cB) | A(BA) FAD
|[1e3 edB | efg {g}(f2 e) | dcB AFD | E3 E2 f :|2 E3 EFA | BcA B2 (c|d)cB A
FD | E3 E3 ||
